logos/microsoft.svg

<?xml version="1.0" encoding="UTF-8"?>
<svg width="512px" height="110px" viewBox="0 0 512 110" version="1.1" xmlns="http://www.w3.org/2000/svg" preserveAspectRatio="xMidYMid">
    <title>Microsoft</title>
    <g>
        <path d="M512,49.4486428 L512,40.4443376 L500.818267,40.4443376 L500.818267,26.445689 L500.441899,26.5614622 L489.939328,29.7746322 L489.732546,29.8377811 L489.732546,40.4443376 L473.155932,40.4443376 L473.155932,34.5361909 C473.155932,31.7848754 473.771326,29.6792895 474.983539,28.2751528 C476.187703,26.887732 477.910061,26.1825681 480.106037,26.1825681 C481.685382,26.1825681 483.320445,26.554652 484.965415,27.2882948 L485.377741,27.4721698 L485.377741,17.9892942 L485.183961,17.9180969 C483.649192,17.3664717 481.560941,17.0884923 478.973689,17.0884923 C475.712228,17.0884923 472.748559,17.7979899 470.164403,19.204603 C467.578389,20.6130735 465.544001,22.6239359 464.119433,25.1808516 C462.6992,27.7346717 461.978558,30.6841016 461.978558,33.9480385 L461.978558,40.4443376 L454.192658,40.4443376 L454.192658,49.4486428 L461.978558,49.4486428 L461.978558,87.3820026 L473.155932,87.3820026 L473.155932,49.4486428 L489.732546,49.4486428 L489.732546,73.5548468 C489.732546,83.482861 494.415478,88.5143509 503.650711,88.5143509 C505.168764,88.5143509 506.765468,88.3360478 508.396792,87.9874901 C510.056645,87.6302648 511.187136,87.2730396 511.852652,86.8916691 L512,86.804994 L512,77.7171093 L511.545574,78.0179956 C510.938849,78.4228922 510.183537,78.7528767 509.297619,78.9980435 C508.407936,79.248163 507.665006,79.373842 507.089879,79.373842 C504.926073,79.373842 503.325704,78.7906423 502.33201,77.6403399 C501.327818,76.4795126 500.818317,74.4488387 500.818317,71.6089908 L500.818317,49.4486428 L512,49.4486428 L512,49.4486428 Z M429.231837,79.3747087 C425.174823,79.3747087 421.976511,78.0293872 419.72234,75.3796054 C417.454547,72.7162033 416.305483,68.9192146 416.305483,64.0951259 C416.305483,59.1181175 417.454547,55.2226906 419.723578,52.5122363 C421.978988,49.8197361 425.146963,48.453365 429.140828,48.453365 C433.016444,48.453365 436.101458,49.7584444 438.311054,52.3345523 C440.532414,54.9236615 441.65919,58.788133 441.65919,63.8233375 C441.65919,68.9204529 440.599277,72.8356911 438.509169,75.4545175 C436.433919,78.0541515 433.312996,79.3747087 429.231837,79.3747087 L429.231837,79.3747087 Z M429.7296,39.3134751 C421.989513,39.3134751 415.841771,41.5812673 411.459107,46.0543219 C407.078918,50.5279955 404.857559,56.7184554 404.857559,64.4560658 C404.857559,71.8048765 407.025675,77.7161186 411.301853,82.0226332 C415.578032,86.331005 421.397645,88.5133604 428.597251,88.5133604 C436.10022,88.5133604 442.125378,86.2139936 446.506804,81.6790283 C450.887611,77.1483967 453.107114,71.0167521 453.107114,63.4599211 C453.107114,55.9959564 451.024435,50.0407576 446.914797,45.762722 C442.803301,41.4828292 437.020214,39.3134751 429.7296,39.3134751 L429.7296,39.3134751 Z M386.836254,39.3132275 C381.57136,39.3132275 377.216556,40.6597871 373.88947,43.3151409 C370.542573,45.9859724 368.844979,49.4895039 368.844979,53.7285357 C368.844979,55.9319407 369.21149,57.8895598 369.932752,59.549388 C370.658346,61.2154074 371.781408,62.6814549 373.272839,63.9122414 C374.753744,65.1331222 377.038253,66.4121991 380.066928,67.7129447 C382.612082,68.7604754 384.510885,69.6470379 385.716907,70.3453916 C386.895689,71.0295058 387.732723,71.7179537 388.205102,72.3878285 C388.663861,73.0434638 388.897265,73.9405511 388.897265,75.0487542 C388.897265,78.2018707 386.535987,79.7360201 381.676609,79.7360201 C379.874386,79.7360201 377.818329,79.3602216 375.566014,78.6179112 C373.312462,77.8768391 371.206875,76.8113543 369.30869,75.4449832 L368.844979,75.1125223 L368.844979,85.8732367 L369.015234,85.9524825 C370.597054,86.6824106 372.590582,87.2978039 374.940715,87.7825654 C377.286515,88.2673268 379.417484,88.5143509 381.269236,88.5143509 C386.982364,88.5143509 391.582955,87.160981 394.939758,84.4901496 C398.318229,81.8007449 400.030682,78.214872 400.030682,73.8284926 C400.030682,70.6648512 399.10883,67.9513013 397.291749,65.763374 C395.487668,63.5927817 392.35622,61.6004926 387.987795,59.8391306 C384.507789,58.4424232 382.278383,57.2828341 381.359007,56.393176 C380.472444,55.5332351 380.022353,54.3173073 380.022353,52.7775859 C380.022353,51.412453 380.577693,50.3191085 381.718709,49.4331651 C382.868392,48.5428879 384.468166,48.0903201 386.475315,48.0903201 C388.337591,48.0903201 390.243205,48.3843963 392.137675,48.9607858 C394.031526,49.5371752 395.69445,50.3092027 397.083109,51.2539614 L397.539392,51.5659918 L397.539392,41.3581408 L397.364185,41.2826096 C396.08325,40.733461 394.394324,40.2635581 392.343219,39.8821876 C390.300163,39.5045318 388.447173,39.3132275 386.836254,39.3132275 L386.836254,39.3132275 Z M339.706047,79.3747087 C335.650271,79.3747087 332.450721,78.0293872 330.197169,75.3796054 C327.928757,72.7162033 326.78155,68.9204529 326.78155,64.0951259 C326.78155,59.1181175 327.929996,55.2226906 330.199645,52.5122363 C332.453198,49.8197361 335.620554,48.453365 339.616276,48.453365 C343.490654,48.453365 346.575668,49.7584444 348.785883,52.3345523 C351.007243,54.9236615 352.134019,58.788133 352.134019,63.8233375 C352.134019,68.9204529 351.073487,72.8356911 348.983379,75.4545175 C346.908129,78.0541515 343.788444,79.3747087 339.706047,79.3747087 L339.706047,79.3747087 Z M340.205048,39.3134751 C332.463103,39.3134751 326.315362,41.5812673 321.934555,46.0543219 C317.554366,50.5279955 315.331769,56.7184554 315.331769,64.4560658 C315.331769,71.8079721 317.501123,77.7161186 321.777301,82.0226332 C326.05348,86.331005 331.872475,88.5133604 339.072699,88.5133604 C346.573811,88.5133604 352.600826,86.2139936 356.982252,81.6790283 C361.361822,77.1483967 363.582562,71.0167521 363.582562,63.4599211 C363.582562,55.9959564 361.499264,50.0407576 357.389006,45.762722 C353.276273,41.4828292 347.494424,39.3134751 340.205048,39.3134751 L340.205048,39.3134751 Z M298.36487,48.5726051 L298.36487,40.4443376 L287.323699,40.4443376 L287.323699,87.3807644 L298.36487,87.3807644 L298.36487,63.3711411 C298.36487,59.2881245 299.290436,55.9344171 301.116804,53.4010275 C302.920265,50.8979744 305.323643,49.6294223 308.257595,49.6294223 C309.251881,49.6294223 310.368133,49.7934859 311.577251,50.1178985 C312.773986,50.4404537 313.640738,50.7902495 314.152121,51.1586188 L314.615833,51.4947944 L314.615833,40.3638536 L314.436911,40.2870842 C313.408573,39.849994 311.954288,39.6295916 310.11368,39.6295916 C307.339458,39.6295916 304.856216,40.521107 302.72958,42.2762778 C300.86297,43.8190947 299.513314,45.9345864 298.481881,48.5726051 L298.36487,48.5726051 L298.36487,48.5726051 Z M267.551563,39.3132275 C262.486641,39.3132275 257.968391,40.3997618 254.12497,42.5406369 C250.274118,44.6864649 247.296209,47.7504299 245.269869,51.6464758 C243.252816,55.5332351 242.228811,60.0731534 242.228811,65.1355986 C242.228811,69.5702685 243.22186,73.6402837 245.184432,77.2267758 C247.148243,80.8194589 249.928037,83.6302088 253.446427,85.5797795 C256.959865,87.5268739 261.020593,88.5143509 265.516555,88.5143509 C270.763494,88.5143509 275.243359,87.464963 278.835423,85.3965235 L278.980295,85.3129439 L278.980295,75.1979592 L278.516583,75.5366112 C276.889567,76.7215837 275.071248,77.6675806 273.114866,78.3492184 C271.163438,79.0302371 269.384122,79.3744611 267.824589,79.3744611 C263.492073,79.3744611 260.014543,78.0186148 257.489821,75.3465451 C254.959527,72.6701417 253.676736,68.9127759 253.676736,64.1840298 C253.676736,59.4255665 255.014628,55.5716199 257.651408,52.7274381 C260.279521,49.891924 263.76386,48.4537364 268.006607,48.4537364 C271.635817,48.4537364 275.172161,49.6826655 278.517821,52.1095685 L278.980295,52.4457441 L278.980295,41.7878017 L278.831089,41.703603 C277.571824,40.9990582 275.855037,40.4170968 273.72283,39.9756729 C271.600528,39.5354872 269.524659,39.3132275 267.551563,39.3132275 L267.551563,39.3132275 Z M234.624557,40.4444614 L223.583387,40.4444614 L223.583387,87.3808881 L234.624557,87.3808881 L234.624557,40.4444614 L234.624557,40.4444614 Z M229.216649,20.4491338 C227.399568,20.4491338 225.814652,21.0676225 224.512667,22.2934562 C223.205112,23.5230044 222.541428,25.0707742 222.541428,26.8971424 C222.541428,28.6950318 223.197064,30.2143226 224.491618,31.4110581 C225.778124,32.6040791 227.367993,33.2089474 229.216649,33.2089474 C231.064686,33.2089474 232.660747,32.6040791 233.96273,31.4129155 C235.273382,30.2143226 235.937685,28.6950318 235.937685,26.8971424 C235.937685,25.1345423 235.291336,23.6022502 234.016593,22.3429848 C232.743707,21.0861958 231.128455,20.4491338 229.216649,20.4491338 L229.216649,20.4491338 Z M201.668884,36.9815433 L201.668884,87.3806406 L212.936647,87.3806406 L212.936647,21.8864546 L197.341939,21.8864546 L177.519342,70.5334766 L158.283041,21.8864546 L142.053128,21.8864546 L142.053128,87.3806406 L152.64173,87.3806406 L152.64173,36.9765905 L153.005765,36.9765905 L173.318695,87.3806406 L181.309521,87.3806406 L201.305467,36.9815433 L201.668884,36.9815433 L201.668884,36.9815433 Z" fill="#706D6E"></path>
        <g>
            <polygon fill="#F1511B" points="51.9394377 51.9394377 0 51.9394377 0 0 51.9394377 0"></polygon>
            <polygon fill="#80CC28" points="109.286783 51.9394377 57.3479642 51.9394377 57.3479642 0 109.286783 0"></polygon>
            <polygon fill="#00ADEF" points="51.9381995 109.307213 0 109.307213 0 57.3677757 51.9381995 57.3677757"></polygon>
            <polygon fill="#FBBC09" points="109.286783 109.307213 57.3479642 109.307213 57.3479642 57.3677757 109.286783 57.3677757"></polygon>
        </g>
    </g>
</svg>

<svg preserveAspectRatio="xMidYMid" viewBox="0 0 512 110" xmlns="http://www.w3.org/2000/svg">
  <path fill="#706D6E" d="M512 49.449v-9.005h-11.182V26.446l-.376.115-10.503 3.214-.206.063v10.606h-16.577v-5.908c0-2.751.615-4.857 1.828-6.26 1.204-1.388 2.926-2.093 5.122-2.093 1.58 0 3.214.372 4.86 1.105l.412.184V17.99l-.194-.07c-1.535-.553-3.623-.83-6.21-.83-3.262 0-6.225.709-8.81 2.116a15.052 15.052 0 0 0-6.045 5.976c-1.42 2.554-2.14 5.503-2.14 8.767v6.496h-7.786v9.005h7.786v37.933h11.177V49.449h16.577v24.106c0 9.928 4.682 14.96 13.918 14.96a22.79 22.79 0 0 0 4.746-.528c1.66-.357 2.79-.714 3.456-1.095l.147-.087v-9.088l-.454.301c-.607.405-1.362.735-2.248.98-.89.25-1.633.376-2.208.376-2.164 0-3.764-.583-4.758-1.734-1.004-1.16-1.514-3.191-1.514-6.031v-22.16H512Zm-82.768 29.926c-4.057 0-7.255-1.346-9.51-3.995-2.267-2.664-3.417-6.46-3.417-11.285 0-4.977 1.15-8.872 3.419-11.583 2.255-2.692 5.423-4.059 9.417-4.059 3.875 0 6.96 1.305 9.17 3.882 2.221 2.589 3.348 6.453 3.348 11.488 0 5.097-1.06 9.013-3.15 11.632-2.075 2.6-5.196 3.92-9.277 3.92Zm.498-40.062c-7.74 0-13.888 2.268-18.27 6.741-4.381 4.474-6.602 10.664-6.602 18.402 0 7.349 2.168 13.26 6.444 17.567 4.276 4.308 10.096 6.49 17.295 6.49 7.503 0 13.528-2.299 17.91-6.834 4.38-4.53 6.6-10.662 6.6-18.22 0-7.463-2.083-13.418-6.192-17.696-4.112-4.28-9.895-6.45-17.185-6.45Zm-42.894 0c-5.265 0-9.62 1.347-12.947 4.002-3.346 2.671-5.044 6.175-5.044 10.414 0 2.203.366 4.16 1.088 5.82.725 1.666 1.848 3.132 3.34 4.363 1.48 1.221 3.765 2.5 6.794 3.8 2.545 1.048 4.444 1.935 5.65 2.633 1.179.685 2.016 1.373 2.488 2.043.459.655.692 1.553.692 2.66 0 3.154-2.361 4.688-7.22 4.688-1.803 0-3.859-.376-6.111-1.118a22.972 22.972 0 0 1-6.257-3.173l-.464-.332v10.76l.17.08c1.582.73 3.576 1.345 5.926 1.83 2.346.484 4.476.731 6.328.731 5.713 0 10.314-1.353 13.67-4.024 3.38-2.69 5.092-6.275 5.092-10.662 0-3.163-.922-5.877-2.74-8.065-1.803-2.17-4.935-4.163-9.303-5.924-3.48-1.397-5.71-2.556-6.629-3.446-.887-.86-1.337-2.076-1.337-3.615 0-1.366.556-2.459 1.697-3.345 1.15-.89 2.75-1.343 4.756-1.343 1.863 0 3.768.294 5.663.87 1.894.577 3.556 1.35 4.945 2.294l.456.312V41.358l-.175-.075c-1.28-.55-2.97-1.02-5.02-1.4-2.044-.378-3.897-.57-5.508-.57Zm-47.13 40.062c-4.056 0-7.255-1.346-9.509-3.995-2.268-2.664-3.415-6.46-3.415-11.285 0-4.977 1.148-8.872 3.418-11.583 2.253-2.692 5.42-4.059 9.416-4.059 3.875 0 6.96 1.305 9.17 3.882 2.221 2.589 3.348 6.453 3.348 11.488 0 5.097-1.06 9.013-3.15 11.632-2.076 2.6-5.196 3.92-9.278 3.92Zm.499-40.062c-7.742 0-13.89 2.268-18.27 6.741-4.38 4.474-6.603 10.664-6.603 18.402 0 7.352 2.17 13.26 6.445 17.567 4.276 4.308 10.095 6.49 17.296 6.49 7.5 0 13.528-2.299 17.91-6.834 4.379-4.53 6.6-10.662 6.6-18.22 0-7.463-2.084-13.418-6.194-17.696-4.113-4.28-9.895-6.45-17.184-6.45Zm-41.84 9.26v-8.129h-11.041v46.937h11.04V63.37c0-4.083.926-7.437 2.753-9.97 1.803-2.503 4.207-3.772 7.14-3.772.995 0 2.111.164 3.32.489 1.197.322 2.064.672 2.575 1.04l.464.337v-11.13l-.18-.077c-1.027-.437-2.482-.657-4.322-.657-2.775 0-5.258.891-7.384 2.646-1.867 1.543-3.217 3.659-4.248 6.297h-.117Zm-30.813-9.26c-5.065 0-9.584 1.087-13.427 3.228-3.85 2.145-6.829 5.21-8.855 9.105-2.017 3.887-3.041 8.427-3.041 13.49 0 4.434.993 8.504 2.955 12.09 1.964 3.593 4.744 6.404 8.262 8.354 3.514 1.947 7.575 2.934 12.07 2.934 5.247 0 9.727-1.049 13.32-3.117l.144-.084V75.198l-.463.339a20.766 20.766 0 0 1-5.402 2.812c-1.952.681-3.73 1.025-5.29 1.025-4.333 0-7.81-1.355-10.335-4.027-2.53-2.677-3.813-6.434-3.813-11.163 0-4.758 1.338-8.612 3.974-11.457 2.629-2.835 6.113-4.273 10.356-4.273 3.629 0 7.165 1.229 10.51 3.656l.463.336V41.788l-.149-.084c-1.26-.705-2.976-1.287-5.108-1.728-2.122-.44-4.198-.663-6.171-.663Zm-32.927 1.131h-11.042v46.937h11.042V40.444Zm-5.408-19.995c-1.817 0-3.402.619-4.704 1.844-1.308 1.23-1.972 2.778-1.972 4.604 0 1.798.656 3.317 1.95 4.514 1.287 1.193 2.877 1.798 4.726 1.798 1.848 0 3.444-.605 4.746-1.796 1.31-1.199 1.975-2.718 1.975-4.516 0-1.762-.647-3.295-1.921-4.554-1.273-1.257-2.889-1.894-4.8-1.894Zm-27.548 16.533V87.38h11.268V21.886h-15.595l-19.823 48.647-19.236-48.647h-16.23v65.495h10.589V36.977h.364l20.313 50.404h7.99l19.996-50.4h.364Z"/>
  <path fill="#F1511B" d="M51.94 51.94H0V0h51.94z"/>
  <path fill="#80CC28" d="M109.287 51.94H57.348V0h51.939z"/>
  <path fill="#00ADEF" d="M51.938 109.307H0v-51.94h51.938z"/>
  <path fill="#FBBC09" d="M109.287 109.307H57.348v-51.94h51.939z"/>
</svg>
